places/scalable/folder-custom-steam.svg

<svg xmlns="http://www.w3.org/2000/svg" style="isolation:isolate" width="256" height="256"><path d="M53.039 21C16.724 21 13 23.055 13 59.371v52.167h230V79.563c0-36.316-3.724-42.102-40.039-42.102h-89.336L97.198 21H53.039z" fill="#value_dark"/><path d="M53.039 70.384C16.722 70.384 13 74.114 13 110.429v84.524C13 231.269 16.722 235 53.039 235h149.922c36.317 0 40.039-3.731 40.039-40.047V93.969c0-36.316-3.722-40.047-40.039-40.047H119.53l-16.438 16.462H53.039z" fill="#value_light"/><linearGradient id="a" y1=".5" x2="0" y2="-.5" gradientTransform="matrix(230 0 0 181.078 13 53.922)" gradientUnits="userSpaceOnUse"><stop offset="0%" stop-opacity=".07" stop-color="#fff"/><stop offset="67.282%" stop-opacity="0" stop-color="#fcefe8"/></linearGradient><path d="M53.039 70.384C16.722 70.384 13 74.114 13 110.429v84.524C13 231.269 16.722 235 53.039 235h149.922c36.317 0 40.039-3.731 40.039-40.047V93.969c0-36.316-3.722-40.047-40.039-40.047H119.53l-16.438 16.462H53.039z" fill="url(#a)"/><g opacity=".4"><radialGradient id="b" fx=".5" fy=".136" cx=".5" cy=".5" r=".272" gradientTransform="matrix(230 0 0 60.62 13 21)" gradientUnits="userSpaceOnUse"><stop offset="0%" stop-color="#fff"/><stop offset="100%" stop-opacity=".204" stop-color="#fff"/></radialGradient><path d="M53.039 21C16.724 21 13 23.055 13 59.371v2.059c0-36.316 3.724-38.373 40.039-38.373h44.159l16.427 16.461h89.336c36.315 0 40.039 5.786 40.039 42.102v-2.057c0-36.316-3.724-42.102-40.039-42.102h-89.336L97.198 21H53.039z" fill="url(#b)"/></g><g opacity=".4"><radialGradient id="c" fx=".482" fy=".211" cx=".5" cy=".5" r=".272" gradientTransform="matrix(230 0 0 58.565 13 53.922)" gradientUnits="userSpaceOnUse"><stop offset="0%" stop-color="#fff"/><stop offset="100%" stop-opacity=".204" stop-color="#fff"/></radialGradient><path d="M119.53 53.922l-16.438 16.462H53.039C16.724 70.384 13 74.112 13 110.427v2.06c0-36.316 3.724-40.046 40.039-40.046h50.053l16.438-16.46h83.431c36.315 0 40.039 3.727 40.039 40.043v-2.057c0-36.316-3.724-40.045-40.039-40.045H119.53z" fill="url(#c)"/></g><path d="M243 167.096l-65.715 65.845h25.676c36.315 0 40.039-3.727 40.039-40.043v-25.802z" fill="#FFF" opacity=".1"/><path d="M13 192.898v2.057C13 231.271 16.724 235 53.039 235h149.922c36.315 0 40.039-3.729 40.039-40.045v-2.057c0 36.316-3.724 40.043-40.039 40.043H53.039c-36.315 0-40.039-3.727-40.039-40.043z" opacity=".2"/><g opacity=".62"><path d="M68 163.67l22.56 13.027c-.037.518-.06 1.035-.06 1.553 0 12.427 10.073 22.5 22.5 22.5s22.5-10.073 22.5-22.5a23.165 23.165 0 0 0-.248-3.06l27.285-19.485c14.176-.427 25.448-12.03 25.463-26.205 0-14.497-11.752-26.25-26.25-26.25s-26.257 11.753-26.25 26.355l-17.415 26.76a22.294 22.294 0 0 0-5.085-.615c-3.398.007-6.75.787-9.803 2.272L68 137.705m93.75-26.955c10.358 0 18.75 8.393 18.75 18.75 0 10.358-8.392 18.75-18.75 18.75S143 139.858 143 129.5c0-10.357 8.392-18.75 18.75-18.75zm0 7.5c-6.21 0-11.25 5.04-11.25 11.25s5.04 11.25 11.25 11.25S173 135.71 173 129.5s-5.04-11.25-11.25-11.25zm-48.75 45c8.287 0 15 6.713 15 15 0 8.287-6.713 15-15 15a14.993 14.993 0 0 1-14.692-12.083l5.287 3.061a11.228 11.228 0 0 0 15.368-4.118 11.228 11.228 0 0 0-4.118-15.368l-2.535-1.462c.233-.015.457-.023.69-.03z" fill="#323232"/></g></svg>

<?xml version="1.0" standalone="no"?><!-- Generator: Gravit.io -->
<svg xmlns="http://www.w3.org/2000/svg" 
  xmlns:xlink="http://www.w3.org/1999/xlink" style="isolation:isolate" viewBox="0 0 256 256" width="256" height="256">
  <switch>
    <g>
      <g id="folder">
        <path d=" M 53.039 21 C 16.724 21 13 23.055 13 59.371 L 13 111.538 L 243 111.538 L 243 79.563 C 243 43.247 239.276 37.461 202.961 37.461 L 113.625 37.461 L 97.198 21 L 53.039 21 Z " id="orange" fill="#value_dark"/>
        <path d=" M 53.039 70.384 C 16.722 70.384 13 74.114 13 110.429 L 13 194.953 C 13 231.269 16.722 235 53.039 235 L 202.961 235 C 239.278 235 243 231.269 243 194.953 L 243 93.969 C 243 57.653 239.278 53.922 202.961 53.922 L 119.53 53.922 L 103.092 70.384 L 53.039 70.384 Z " id="change-color-easy" fill="#value_light"/>
        <linearGradient id="_lgradient_38" x1="0" y1="0.5" x2="2.83276944882399e-16" y2="-0.5" gradientTransform="matrix(230,0,0,181.078,13,53.922)" gradientUnits="userSpaceOnUse">
          <stop offset="0%" stop-opacity="0.07" style="stop-color:rgb(255,255,255)"/>
          <stop offset="67.28219512106674%" stop-opacity="0" style="stop-color:rgb(252,239,232)"/>
        </linearGradient>
        <path d=" M 53.039 70.384 C 16.722 70.384 13 74.114 13 110.429 L 13 194.953 C 13 231.269 16.722 235 53.039 235 L 202.961 235 C 239.278 235 243 231.269 243 194.953 L 243 93.969 C 243 57.653 239.278 53.922 202.961 53.922 L 119.53 53.922 L 103.092 70.384 L 53.039 70.384 Z " id="gradient white" fill="url(#_lgradient_38)"/>
        <g opacity="0.4">
          <radialGradient id="_rgradient_75" fx="0.5000000213726793" fy="0.13577386516315215" cx="0.5" cy="0.5" r="0.27154159375000003" gradientTransform="matrix(230,0,0,60.62,13,21)" gradientUnits="userSpaceOnUse">
            <stop offset="0%" stop-opacity="1" style="stop-color:rgb(255,255,255)"/>
            <stop offset="100%" stop-opacity="0.20392157" style="stop-color:rgb(255,255,255)"/>
          </radialGradient>
          <path d=" M 53.039 21 C 16.724 21 13 23.055 13 59.371 L 13 61.43 C 13 25.114 16.724 23.057 53.039 23.057 L 97.198 23.057 L 113.625 39.518 L 202.961 39.518 C 239.276 39.518 243 45.304 243 81.62 L 243 79.563 C 243 43.247 239.276 37.461 202.961 37.461 L 113.625 37.461 L 97.198 21 L 53.039 21 Z " id="white" fill="url(#_rgradient_75)"/>
        </g>
        <g opacity="0.4">
          <radialGradient id="_rgradient_76" fx="0.48214287810452355" fy="0.2108154047287485" cx="0.5" cy="0.5" r="0.27154159375" gradientTransform="matrix(230,0,0,58.565,13,53.922)" gradientUnits="userSpaceOnUse">
            <stop offset="0%" stop-opacity="1" style="stop-color:rgb(255,255,255)"/>
            <stop offset="100%" stop-opacity="0.20392157" style="stop-color:rgb(255,255,255)"/>
          </radialGradient>
          <path d=" M 119.53 53.922 L 103.092 70.384 L 53.039 70.384 C 16.724 70.384 13 74.112 13 110.427 L 13 112.487 C 13 76.171 16.724 72.441 53.039 72.441 L 103.092 72.441 L 119.53 55.981 L 202.961 55.981 C 239.276 55.981 243 59.708 243 96.024 L 243 93.967 C 243 57.651 239.276 53.922 202.961 53.922 L 119.53 53.922 Z " id="white" fill="url(#_rgradient_76)"/>
        </g>
        <g opacity="0.1">
          <path d=" M 243 167.096 L 177.285 232.941 L 202.961 232.941 C 239.276 232.941 243 229.214 243 192.898 L 243 167.096 Z " id="white" fill="rgb(255,255,255)"/>
        </g>
        <g opacity="0.2">
          <path d=" M 13 192.898 L 13 194.955 C 13 231.271 16.724 235 53.039 235 L 202.961 235 C 239.276 235 243 231.271 243 194.955 L 243 192.898 C 243 229.214 239.276 232.941 202.961 232.941 L 53.039 232.941 C 16.724 232.941 13 229.214 13 192.898 Z " id="dark" fill="rgb(0,0,0)"/>
        </g>
      </g>
      <g opacity="0.62">
        <path d=" M 68 163.67 L 90.56 176.697 C 90.523 177.215 90.5 177.732 90.5 178.25 C 90.5 190.677 100.573 200.75 113 200.75 C 125.427 200.75 135.5 190.677 135.5 178.25 C 135.485 177.223 135.402 176.202 135.252 175.19 L 162.537 155.705 C 176.713 155.278 187.985 143.675 188 129.5 C 188 115.003 176.248 103.25 161.75 103.25 C 147.252 103.25 135.493 115.003 135.5 129.605 L 118.085 156.365 C 116.42 155.967 114.71 155.757 113 155.75 C 109.602 155.757 106.25 156.537 103.197 158.022 L 68 137.705 M 161.75 110.75 C 172.108 110.75 180.5 119.143 180.5 129.5 C 180.5 139.858 172.108 148.25 161.75 148.25 C 151.392 148.25 143 139.858 143 129.5 C 143 119.143 151.392 110.75 161.75 110.75 Z  M 161.75 118.25 C 155.54 118.25 150.5 123.29 150.5 129.5 C 150.5 135.71 155.54 140.75 161.75 140.75 C 167.96 140.75 173 135.71 173 129.5 C 173 123.29 167.96 118.25 161.75 118.25 Z  M 113 163.25 C 121.287 163.25 128 169.963 128 178.25 C 128 186.537 121.287 193.25 113 193.25 C 105.845 193.243 99.695 188.18 98.308 181.167 L 103.595 184.228 C 108.995 187.34 115.842 185.51 118.963 180.11 C 122.075 174.71 120.245 167.862 114.845 164.742 L 112.31 163.28 C 112.543 163.265 112.767 163.257 113 163.25 Z " id="steam" fill="#323232"/>
      </g>
    </g>
  </switch>
</svg>
